ix/video-octagon_bold.svg

<svg viewBox="0 0 24 24" fill="none" xmlns="http://www.w3.org/2000/svg" height="1em" width="1em">
  <path d="M19.5119 5.85L13.5719 2.42C12.6019 1.86 11.4019 1.86 10.4219 2.42L4.49187 5.85C3.52187 6.41 2.92188 7.45 2.92188 8.58V15.42C2.92188 16.54 3.52187 17.58 4.49187 18.15L10.4319 21.58C11.4019 22.14 12.6019 22.14 13.5819 21.58L19.5219 18.15C20.4919 17.59 21.0919 16.55 21.0919 15.42V8.58C21.0819 7.45 20.4819 6.42 19.5119 5.85ZM14.2519 13.4L13.2119 14L12.1719 14.6C10.8419 15.37 9.75187 14.74 9.75187 13.2V12V10.8C9.75187 9.26 10.8419 8.63 12.1719 9.4L13.2119 10L14.2519 10.6C15.5819 11.37 15.5819 12.63 14.2519 13.4Z" fill="#292D32"/>
</svg>

<svg viewBox="0 0 24 24" fill="none" xmlns="http://www.w3.org/2000/svg" height="1em" width="1em">
  <path d="m19.512 5.85-5.94-3.43c-.97-.56-2.17-.56-3.15 0l-5.93 3.43a3.15 3.15 0 0 0-1.57 2.73v6.84c0 1.12.6 2.16 1.57 2.73l5.94 3.43c.97.56 2.17.56 3.15 0l5.94-3.43a3.15 3.15 0 0 0 1.57-2.73V8.58a3.192 3.192 0 0 0-1.58-2.73Zm-5.26 7.55-1.04.6-1.04.6c-1.33.77-2.42.14-2.42-1.4v-2.4c0-1.54 1.09-2.17 2.42-1.4l1.04.6 1.04.6c1.33.77 1.33 2.03 0 2.8Z" fill="#292D32"/>
</svg>
